dist/optimized/sent-messages.svg

<svg width="28" height="28" viewBox="0 0 28 28" xmlns="http://www.w3.org/2000/svg"><title>sent-messages</title><path d="M7 15c0-.552.45-1 1.007-1h11.986c.556 0 1.007.444 1.007 1 0 .553-.45 1-1.007 1H8.007A1 1 0 0 1 7 15m0-6c0-.552.45-1 1.007-1h11.986C20.549 8 21 8.444 21 9c0 .552-.45 1-1.007 1H8.007A1.001 1.001 0 0 1 7 9M4 7.009V20h20V7.009A2.994 2.994 0 0 0 21.006 4H6.994A3.004 3.004 0 0 0 4 7.009m22-.346V21.02A4.986 4.986 0 0 1 21.02 26H6.981A4.986 4.986 0 0 1 2 21.02V6.663C2 4.092 4.234 2 6.981 2H21.02C23.766 2 26 4.092 26 6.663" fill-rule="evenodd"/></svg>

<svg width="28" height="28" viewBox="0 0 28 28" xmlns="http://www.w3.org/2000/svg"><title>sent-messages</title><path d="M7 15c0-.55.45-1 1-1h12c.55 0 1 .44 1 1 0 .55-.45 1-1 1H8c-.55 0-1-.44-1-1m0-6c0-.55.45-1 1-1h12c.55 0 1 .44 1 1 0 .55-.45 1-1 1H8c-.55 0-1-.44-1-1M4 7v13h20V7c0-1.66-1.34-3-3-3H7C5.33 4 4 5.35 4 7m22-.34v14.36c0 2.75-2.23 4.98-4.98 4.98H6.98C4.23 26 2 23.77 2 21.02V6.66C2 4.1 4.23 2 6.98 2h14.04C23.77 2 26 4.1 26 6.66" fill-rule="evenodd"/></svg>
